src/assets/header/lines2.svg

<svg width="1256" height="816" fill="none" xmlns="http://www.w3.org/2000/svg"><g opacity=".7" stroke="#fff" stroke-miterlimit="10" stroke-linecap="round"><path d="M442.083 657.61c-98.255-118.921-70.645-550.125 186.028-553.503 220.996-2.895 360.7 122.746 437.239 211.279 65.81 76.046 136.49 213.108 136.49 213.108" stroke-width="1.5"/><path d="M415.661 647.28c-88.466-123.378-53.816-535.865 197.459-539.783 215.926-3.382 355.229 117.829 432.55 206.377 69 78.466 141.14 216.884 143.34 228.882" stroke-width="1.458"/><path d="M389.33 637.077c-78.785-127.853-36.986-521.606 208.782-526.081 210.947-3.741 349.596 113.222 427.988 201.384 71.95 80.959 145.77 220.769 150.09 244.53" stroke-width="1.417"/><path d="M362.889 626.857c-68.867-132.402-20.029-507.438 220.215-512.362 205.859-4.118 343.998 108.396 423.406 196.499 75.03 83.362 150.31 224.528 156.83 260.287" stroke-width="1.375"/><path d="M336.576 616.545c-59.204-136.768-3.217-493.07 231.629-498.533 200.789-4.605 338.509 103.588 418.717 191.596 78.108 85.765 154.958 228.305 163.688 275.953" stroke-width="1.333"/><path d="M310.136 606.324c-49.396-141.334 13.74-478.902 243.061-484.813 195.81-4.964 333.037 98.671 414.136 186.712 81.297 88.185 159.607 232.081 170.427 291.709" stroke-width="1.292"/><path d="M283.695 596.104c-39.606-145.792 30.57-464.643 254.385-471.111 190.957-5.416 327.675 93.771 409.572 181.718 84.378 90.587 164.258 235.857 177.288 307.374" stroke-width="1.25"/><path d="M257.382 585.792c-29.816-150.249 47.509-450.366 265.817-457.391 185.76-5.811 322.168 89.072 404.881 176.815 87.57 93.008 168.89 239.743 184.02 323.131" stroke-width="1.208"/><path d="M230.942 575.571C210.916 420.865 295.298 139.356 508.191 131.9c180.798-6.279 316.696 84.155 400.191 171.913 90.65 95.41 173.428 243.501 190.868 338.906" stroke-width="1.167"/><path d="M204.611 565.368c-10.327-159.29 81.295-421.938 288.572-429.969 175.819-6.639 311.334 79.256 395.61 167.028 93.857 97.722 178.077 247.278 197.627 354.554" stroke-width="1.125"/><path d="M178.188 555.039c-.445-163.621 98.234-407.662 299.987-416.14 170.748-7.126 305.862 74.338 390.937 162.016 97.065 100.033 182.728 251.054 204.468 370.328" stroke-width="1.083"/><path d="M151.857 544.836c9.253-168.205 115.082-393.511 311.436-402.53 165.661-7.502 300.391 69.422 386.339 157.241C949.887 402 1036.99 554.486 1060.85 685.523" stroke-width="1.042"/><path d="M125.417 534.615c19.043-172.662 131.911-379.252 322.868-388.809 160.699-7.972 295.029 64.521 381.667 152.229 103.461 104.764 191.898 258.698 217.958 401.733"/><path d="M99.103 524.303c28.834-177.119 148.851-364.975 334.192-375.107 155.72-8.331 289.666 59.622 377.085 147.344 106.669 107.076 196.55 262.474 224.82 417.398" stroke-width=".958"/><path d="M72.663 514.083c38.641-181.686 165.698-350.825 345.624-361.388 150.632-8.708 284.195 54.705 372.395 142.442 109.876 109.387 201.196 266.251 231.558 433.155" stroke-width=".917"/><path d="M46.223 503.862C94.654 317.719 228.86 167.314 403.279 156.194c145.67-9.177 278.833 49.806 367.814 137.558 113.21 111.606 205.844 270.026 238.417 448.82" stroke-width=".875"/><path d="M19.91 493.55C78.003 303.041 219.375 171.262 388.27 159.694c140.582-9.555 273.615 44.705 363.124 132.654C867.957 406.066 961.87 566.261 996.55 756.926" stroke-width=".833"/><path d="M-6.531 483.33C61.48 288.272 209.875 175.318 373.263 163.193c135.621-10.023 268.143 39.788 358.56 127.661 119.752 116.137 215.125 277.688 252.001 480.352" stroke-width=".792"/><path d="M-32.862 473.127C109.087 108.6 510.755 95.375 712.234 289.468c122.959 118.449 219.664 281.447 258.755 496" stroke-width=".75"/></g></svg>

<svg width="1256" height="816" viewBox="0 0 1256 816" fill="none" xmlns="http://www.w3.org/2000/svg">
<g opacity="0.7">
<path d="M442.083 657.61C343.828 538.689 371.438 107.485 628.111 104.107C849.107 101.212 988.811 226.853 1065.35 315.386C1131.16 391.432 1201.84 528.494 1201.84 528.494" stroke="white" stroke-width="1.5" stroke-miterlimit="10" stroke-linecap="round"/>
<path d="M415.661 647.28C327.195 523.902 361.845 111.415 613.12 107.497C829.046 104.115 968.349 225.326 1045.67 313.874C1114.67 392.34 1186.81 530.758 1189.01 542.756" stroke="white" stroke-width="1.4583" stroke-miterlimit="10" stroke-linecap="round"/>
<path d="M389.33 637.077C310.545 509.224 352.344 115.471 598.112 110.996C809.059 107.255 947.708 224.218 1026.1 312.38C1098.05 393.339 1171.87 533.149 1176.19 556.91" stroke="white" stroke-width="1.4167" stroke-miterlimit="10" stroke-linecap="round"/>
<path d="M362.889 626.857C294.022 494.455 342.86 119.419 583.104 114.495C788.963 110.377 927.102 222.891 1006.51 310.994C1081.54 394.356 1156.82 535.522 1163.34 571.281" stroke="white" stroke-width="1.375" stroke-miterlimit="10" stroke-linecap="round"/>
<path d="M336.576 616.545C277.372 479.777 333.359 123.475 568.205 118.012C768.994 113.407 906.714 221.6 986.922 309.608C1065.03 395.373 1141.88 537.913 1150.61 585.561" stroke="white" stroke-width="1.3333" stroke-miterlimit="10" stroke-linecap="round"/>
<path d="M310.136 606.324C260.74 464.99 323.876 127.422 553.197 121.511C749.007 116.547 886.234 220.182 967.333 308.223C1048.63 396.408 1126.94 540.304 1137.76 599.932" stroke="white" stroke-width="1.2917" stroke-miterlimit="10" stroke-linecap="round"/>
<path d="M283.695 596.104C244.089 450.312 314.265 131.461 538.08 124.993C729.037 119.577 865.755 218.764 947.652 306.711C1032.03 397.298 1111.91 542.568 1124.94 614.085" stroke="white" stroke-width="1.25" stroke-miterlimit="10" stroke-linecap="round"/>
<path d="M257.382 585.792C227.566 435.543 304.891 135.426 523.199 128.401C708.959 122.59 845.367 217.473 928.08 305.216C1015.65 398.224 1096.97 544.959 1112.1 628.347" stroke="white" stroke-width="1.2083" stroke-miterlimit="10" stroke-linecap="round"/>
<path d="M230.942 575.571C210.916 420.865 295.298 139.356 508.191 131.9C688.989 125.621 824.887 216.055 908.382 303.813C999.032 399.223 1081.81 547.314 1099.25 642.719" stroke="white" stroke-width="1.1667" stroke-miterlimit="10" stroke-linecap="round"/>
<path d="M204.611 565.368C194.284 406.078 285.906 143.43 493.183 135.399C669.002 128.76 804.517 214.655 888.793 302.427C982.65 400.149 1066.87 549.705 1086.42 656.981" stroke="white" stroke-width="1.125" stroke-miterlimit="10" stroke-linecap="round"/>
<path d="M178.188 555.039C177.743 391.418 276.422 147.377 478.175 138.899C648.923 131.773 784.037 213.237 869.112 300.915C966.177 400.948 1051.84 551.969 1073.58 671.243" stroke="white" stroke-width="1.0833" stroke-miterlimit="10" stroke-linecap="round"/>
<path d="M151.857 544.836C161.11 376.631 266.939 151.325 463.293 142.306C628.954 134.804 763.684 211.728 849.632 299.547C949.887 402 1036.99 554.486 1060.85 685.523" stroke="white" stroke-width="1.0417" stroke-miterlimit="10" stroke-linecap="round"/>
<path d="M125.417 534.615C144.46 361.953 257.328 155.363 448.285 145.806C608.984 137.834 743.314 210.327 829.952 298.035C933.413 402.799 1021.85 556.733 1047.91 699.768" stroke="white" stroke-miterlimit="10" stroke-linecap="round"/>
<path d="M99.103 524.303C127.937 347.184 247.954 159.328 433.295 149.196C589.015 140.865 722.961 208.818 810.38 296.54C917.049 403.616 1006.93 559.014 1035.2 713.938" stroke="white" stroke-width="0.9583" stroke-miterlimit="10" stroke-linecap="round"/>
<path d="M72.6628 514.083C111.304 332.397 238.361 163.258 418.287 152.695C568.919 143.987 702.482 207.4 790.682 295.137C900.558 404.524 991.878 561.388 1022.24 728.292" stroke="white" stroke-width="0.9167" stroke-miterlimit="10" stroke-linecap="round"/>
<path d="M46.2226 503.862C94.6544 317.719 228.86 167.314 403.279 156.194C548.949 147.017 682.112 206 771.093 293.752C884.303 405.358 976.937 563.778 1009.51 742.572" stroke="white" stroke-width="0.875" stroke-miterlimit="10" stroke-linecap="round"/>
<path d="M19.9091 493.55C78.0043 303.041 219.376 171.262 388.271 159.694C528.853 150.139 661.886 204.399 751.395 292.348C867.957 406.066 961.87 566.261 996.55 756.926" stroke="white" stroke-width="0.8333" stroke-miterlimit="10" stroke-linecap="round"/>
<path d="M-6.53117 483.33C61.481 288.272 209.875 175.318 373.263 163.193C508.884 153.17 641.406 202.981 731.823 290.854C851.575 406.991 946.948 568.542 983.824 771.206" stroke="white" stroke-width="0.7917" stroke-miterlimit="10" stroke-linecap="round"/>
<path d="M-32.8623 473.127C109.087 108.6 510.755 95.3749 712.234 289.468C835.193 407.917 931.898 570.915 970.989 785.468" stroke="white" stroke-width="0.75" stroke-miterlimit="10" stroke-linecap="round"/>
</g>
</svg>
